X:446
T:Netley Abbey. RH.447
R:jig
C:by Wm.Shield,1794
S:Rev.R.Harrison’s MS,c1815,Cumbria
N:From the Opera of the same name.
O:England
A:Temple Sowerby,Cumbria
Z:vmp.Simon Wilson. Review PJH, 2008.
M:6/8
L:1/8
Q:3/8=120
K:A
E|A2c ecA|fdB Bcd|ecA AGA|cBA BGE|!
A2c ecA|fdB Bcd|ecA FBG|A3- A2||!
c|BGE EdB|cAc ecA|BGE EdB|cea A2c|!
BGE EdB|cAc ece|fga Bc^d|e3 fdB|]

